X: 41
T:Lakes of Sligo, The
M:2/4
L:1/8
Q:250
R:Polka
D:Chris Droney "The Flowing Tide"
Q:300
K:D
|: "D"FA AB/c/ | d>e dc | "B"B>A "(Em)"Bd | "A7"e>d ef \
 | "D"FA AB/c/ | "Bm"d>e fe | "G"dB "D"Af | "A7"e2 "D"d2 :|
|: "D"fa d>e | fa ag/f/ | "Em"gb e>f | gb "A7"ba/g/ \
 | "D"fa/f/ "A7"ef/e/ | "D"de f/a/f/e/ | "G"dB "D"Af | "A7"e2 "D"d2 :|
